X: 3
T: My Lagan Love
R: polka
M: 2/4
L: 1/8
K: Amix
K: Amix
( 3ef/g/| a3e (3dcA| G3 ) (A (3cde| d3/c/ AA|
A3) (e/f/ (3gfg| aa2 e (3dcA| G3) (A (3cde| d3/c/ AA|
A3) (A cd| f3/e/ ef//e//d/c/|d3) (dfg| a3 d (3fef|^g3 a a4)|
(=c'4 a3 g| a3 e (3dcA| G3) (A (3cde| d3/c/ AA| A4) :|


Tune 2652	Setting 23061

